icons/midnadark/actions/24/kstars_satellites.svg

<?xml version="1.0" encoding="UTF-8" standalone="no"?>
<!-- Created with Inkscape (http://www.inkscape.org/) -->

<svg
   xmlns:dc="http://purl.org/dc/elements/1.1/"
   xmlns:cc="http://creativecommons.org/ns#"
   xmlns:rdf="http://www.w3.org/1999/02/22-rdf-syntax-ns#"
   xmlns:svg="http://www.w3.org/2000/svg"
   xmlns="http://www.w3.org/2000/svg"
   xmlns:sodipodi="http://sodipodi.sourceforge.net/DTD/sodipodi-0.dtd"
   xmlns:inkscape="http://www.inkscape.org/namespaces/inkscape"
   width="22"
   height="22"
   id="svg2"
   version="1.1"
   inkscape:version="0.91 r13725"
   viewBox="0 0 22 22"
   sodipodi:docname="kstars_satellites.svg">
  <defs
     id="defs4">
    <style
       type="text/css"
       id="current-color-scheme">
      .ColorScheme-Text {
        color:#f2f2f2;
      }
      .ColorScheme-Background {
        color:#eff0f1;
      }
      .ColorScheme-Highlight {
        color:#3daee9;
      }
      .ColorScheme-ViewText {
        color:#31363b;
      }
      .ColorScheme-ViewBackground {
        color:#fcfcfc;
      }
      .ColorScheme-ViewHover {
        color:#93cee9;
      }
      .ColorScheme-ViewFocus{
        color:#3daee9;
      }
      .ColorScheme-ButtonText {
        color:#31363b;
      }
      .ColorScheme-ButtonBackground {
        color:#eff0f1;
      }
      .ColorScheme-ButtonHover {
        color:#93cee9;
      }
      .ColorScheme-ButtonFocus{
        color:#3daee9;
      }
      </style>
    <clipPath
       clipPathUnits="userSpaceOnUse"
       id="clipPath3979">
      <rect
         style="fill:#000000"
         id="rect3981"
         width="64"
         height="64"
         x="0.090115756"
         y="-0.090114839"
         clip-path="none" />
    </clipPath>
    <clipPath
       clipPathUnits="userSpaceOnUse"
       id="clipPath3975">
      <rect
         style="fill:#000000"
         id="rect3977"
         width="64"
         height="64"
         x="0.090115756"
         y="-0.090114839"
         clip-path="none" />
    </clipPath>
    <clipPath
       clipPathUnits="userSpaceOnUse"
       id="clipPath3971">
      <rect
         style="fill:#000000"
         id="rect3973"
         width="64"
         height="64"
         x="0.090115756"
         y="-0.090114839"
         clip-path="none" />
    </clipPath>
    <clipPath
       clipPathUnits="userSpaceOnUse"
       id="clipPath3967">
      <rect
         style="fill:#000000"
         id="rect3969"
         width="64"
         height="64"
         x="0.090115756"
         y="-0.090114839"
         clip-path="none" />
    </clipPath>
    <clipPath
       clipPathUnits="userSpaceOnUse"
       id="clipPath3963">
      <rect
         style="fill:#000000"
         id="rect3965"
         width="64"
         height="64"
         x="0.090115756"
         y="-0.090114839"
         clip-path="none" />
    </clipPath>
    <clipPath
       clipPathUnits="userSpaceOnUse"
       id="clipPath3959">
      <rect
         style="fill:#000000"
         id="rect3961"
         width="64"
         height="64"
         x="0.090115756"
         y="-0.090114839"
         clip-path="none" />
    </clipPath>
  </defs>
  <sodipodi:namedview
     id="base"
     pagecolor="#ffffff"
     bordercolor="#666666"
     borderopacity="1.0"
     inkscape:pageopacity="0.0"
     inkscape:pageshadow="2"
     inkscape:zoom="23.227273"
     inkscape:cx="11"
     inkscape:cy="11"
     inkscape:document-units="px"
     inkscape:current-layer="layer1"
     showgrid="true"
     inkscape:showpageshadow="false"
     units="px"
     inkscape:window-width="1024"
     inkscape:window-height="712"
     inkscape:window-x="0"
     inkscape:window-y="0"
     inkscape:window-maximized="1"
     inkscape:object-nodes="true"
     inkscape:snap-bbox="true">
    <inkscape:grid
       type="xygrid"
       id="grid4120" />
    <sodipodi:guide
       position="2,20.000017"
       orientation="18,0"
       id="guide4126" />
    <sodipodi:guide
       position="2,2.0000174"
       orientation="0,18"
       id="guide4128" />
    <sodipodi:guide
       position="20,2.0000174"
       orientation="-18,0"
       id="guide4130" />
    <sodipodi:guide
       position="20,20.000017"
       orientation="0,-18"
       id="guide4132" />
    <sodipodi:guide
       position="3,19.000017"
       orientation="16,0"
       id="guide4134" />
    <sodipodi:guide
       position="3,3.0000174"
       orientation="0,16"
       id="guide4136" />
    <sodipodi:guide
       position="19,3.0000174"
       orientation="-16,0"
       id="guide4138" />
    <sodipodi:guide
       position="19,19.000017"
       orientation="0,-16"
       id="guide4140" />
    <sodipodi:guide
       position="19,13.000017"
       orientation="-6,0"
       id="guide4199" />
    <sodipodi:guide
       position="19,19.000017"
       orientation="0,-6.0000172"
       id="guide4201" />
  </sodipodi:namedview>
  <metadata
     id="metadata7">
    <rdf:RDF>
      <cc:Work
         rdf:about="">
        <dc:format>image/svg+xml</dc:format>
        <dc:type
           rdf:resource="http://purl.org/dc/dcmitype/StillImage" />
        <dc:title></dc:title>
      </cc:Work>
    </rdf:RDF>
  </metadata>
  <g
     inkscape:label="Capa 1"
     inkscape:groupmode="layer"
     id="layer1"
     transform="translate(0,-1030.3622)">
    <path
       style="fill:#f2f2f2;fill-opacity:1;fill-rule:evenodd;stroke:none;stroke-width:1px;stroke-linecap:butt;stroke-linejoin:miter;stroke-opacity:1"
       d="M 14 3 L 8.7363281 10.177734 A 4.5 4.5 0 0 1 9.6894531 10.570312 L 14.117188 4.53125 L 17.46875 7.8828125 L 11.427734 12.314453 A 4.5 4.5 0 0 1 11.824219 13.261719 L 19 8 L 14 3 z M 3.7480469 16.980469 L 3 18 L 4 19 L 5.0195312 18.251953 A 4.5 4.5 0 0 1 3.7480469 16.980469 z "
       transform="translate(0,1030.3622)"
       id="path4179-7-3" />
    <path
       style="fill:#f2f2f2;fill-opacity:1;stroke:none"
       d="M 7.5 10 C 6.3069911 10.0012 5.1632886 10.476121 4.3203125 11.320312 A 4.5 4.5 0 0 0 3.6933594 12.107422 L 9.8945312 18.308594 A 4.5 4.5 0 0 0 10.679688 17.679688 C 11.523882 16.836711 11.998786 15.693009 12 14.5 C 12.000005 12.01472 9.9852847 10 7.5 10 z M 7.5 11 C 9.4329966 11 11 12.567003 11 14.5 C 10.9988 15.427807 10.629304 16.317185 9.9726562 16.972656 L 5.0273438 12.027344 C 5.6828146 11.370696 6.5721925 11.001176 7.5 11 z "
       transform="translate(0,1030.3622)"
       id="path4220" />
    <path
       style="fill:#f2f2f2;fill-opacity:1;fill-rule:evenodd;stroke:none;stroke-width:1px;stroke-linecap:butt;stroke-linejoin:miter;stroke-opacity:1"
       d="m 38,1049.3622 3,-3 -4.0762,-4.0762 -2.539,3.461 3.6152,3.6152 z m -9.3848,-9.3848 3.461,-2.539 -4.0762,-4.0762 -3,3 3.6152,3.6152 z"
       id="path4179-7-9"
       inkscape:connector-curvature="0" />
    <path
       style="color:#000000;font-style:normal;font-variant:normal;font-weight:normal;font-stretch:normal;font-size:medium;line-height:normal;font-family:sans-serif;text-indent:0;text-align:start;text-decoration:none;text-decoration-line:none;text-decoration-style:solid;text-decoration-color:#000000;letter-spacing:normal;word-spacing:normal;text-transform:none;direction:ltr;block-progression:tb;writing-mode:lr-tb;baseline-shift:baseline;text-anchor:start;white-space:normal;clip-rule:nonzero;display:inline;overflow:visible;visibility:visible;opacity:1;isolation:auto;mix-blend-mode:normal;color-interpolation:sRGB;color-interpolation-filters:linearRGB;solid-color:#000000;solid-opacity:1;fill:#f2f2f2;fill-opacity:1;fill-rule:evenodd;stroke:none;stroke-width:4;stroke-linecap:butt;stroke-linejoin:miter;stroke-miterlimit:4;stroke-dasharray:none;stroke-dashoffset:0;stroke-opacity:1;color-rendering:auto;image-rendering:auto;shape-rendering:auto;text-rendering:auto;enable-background:accumulate"
       d="M 5.9140625 3.0859375 L 3.0859375 5.9160156 L 6.7578125 9.5859375 L 9.5859375 6.7578125 L 5.9140625 3.0859375 z M 15.242188 12.414062 L 12.414062 15.244141 L 16.085938 18.916016 L 18.914062 16.085938 L 15.242188 12.414062 z "
       transform="translate(0,1030.3622)"
       id="path4312" />
    <path
       style="fill:#f2f2f2;fill-opacity:1;fill-rule:evenodd;stroke:none;stroke-width:1px;stroke-linecap:butt;stroke-linejoin:miter;stroke-opacity:1"
       d="M 5.7871094 14.201172 L 4.390625 16.105469 A 3.5 3.5 0 0 0 5.8964844 17.607422 L 7.7988281 16.212891 L 5.7871094 14.201172 z "
       transform="translate(0,1030.3622)"
       id="path4349" />
  </g>
</svg>

<svg xmlns="http://www.w3.org/2000/svg" viewBox="0 0 22 22"><defs><clipPath><path d="m.09-.09h64v64h-64z"/></clipPath><clipPath><path d="m.09-.09h64v64h-64z"/></clipPath><clipPath><path d="m.09-.09h64v64h-64z"/></clipPath><clipPath><path d="m.09-.09h64v64h-64z"/></clipPath><clipPath><path d="m.09-.09h64v64h-64z"/></clipPath><clipPath><path d="m.09-.09h64v64h-64z"/></clipPath></defs><g fill="#f2f2f2"><path d="m14 3l-5.264 7.178a4.5 4.5 0 0 1 .953125 .392578l4.428-6.04 3.352 3.352-6.04 4.432a4.5 4.5 0 0 1 .396485 .947266l7.176-5.262-5-5m-10.252 13.98l-.748 1.02 1 1 1.02-.748a4.5 4.5 0 0 1 -1.271484 -1.271484" fill-rule="evenodd"/><path d="m7.5 10c-1.193.0001-2.337.476-3.18 1.32a4.5 4.5 0 0 0 -.626953 .78711l6.201 6.201a4.5 4.5 0 0 0 .785157 -.628906c.844-.843 1.319-1.987 1.32-3.18 0-2.485-2.01-4.5-4.5-4.5m0 1c1.933 0 3.5 1.567 3.5 3.5-.0001.928-.371 1.817-1.027 2.473l-4.945-4.945c.655-.657 1.545-1.026 2.473-1.027"/><g fill-rule="evenodd"><path d="m5.914 3.086l-2.828 2.83 3.672 3.67 2.828-2.828-3.672-3.672m9.328 9.328l-2.828 2.83 3.672 3.672 2.828-2.83-3.672-3.672" shape-rendering="auto" mix-blend-mode="normal" color-interpolation-filters="linearRGB" isolation="auto" white-space="normal" solid-opacity="1" image-rendering="auto" solid-color="#000000" color="#000" color-rendering="auto" color-interpolation="sRGB"/><path d="m5.787 14.201l-1.396 1.904a3.5 3.5 0 0 0 1.505859 1.501953l1.902-1.395-2.01-2.01"/></g></g></svg>
